assets/talenthouse/mono.svg

<svg viewBox="0 0 24 24" xmlns="http://www.w3.org/2000/svg"><path d="m22.373 7.42v-7.42h-20.746v7.42h6.66v16.58h7.428v-16.58h6.66zm-10.063-7.42h-.623zm-.004 3.41v-2.792h8.865l-3.519 2.792zm-5.948 0-3.528-2.792h8.857v2.792zm-.608.308-3.503 2.76v-5.529zm-2.913 3.084 3.52-2.781h4.894l-2.791 2.779h-5.623zm6.068.438 2.78-2.782v14.781l-1.602 2.046-1.183 1.51zm.326 16.142.555-.706 2.216-2.825 2.77 3.535zm3.078-18.924 2.786 2.782v15.556l-2.786-3.556zm3.241 2.342-2.8-2.78h4.904l3.519 2.78zm6.206-.322-3.506-2.768 3.494-2.747.02-.015z"/></svg>

<svg xmlns="http://www.w3.org/2000/svg" viewBox="0 0 24 24"><path d="M22.373 7.42V0H1.627v7.42h6.66V24h7.428V7.42h6.66zM12.31 0h-.623zm-.004 3.41V.618h8.865L17.652 3.41zm-5.948 0L2.83.618h8.857V3.41zm-.608.308-3.503 2.76V.949zM2.837 6.802l3.52-2.781h4.894L8.46 6.8H2.837zm6.068.438 2.78-2.782v14.781l-1.602 2.046-1.183 1.51zm.326 16.142.555-.706 2.216-2.825 2.77 3.535zm3.078-18.924 2.786 2.782v15.556l-2.786-3.556zM15.55 6.8l-2.8-2.78h4.904l3.519 2.78zm6.206-.322L18.25 3.71 21.744.963l.02-.015z"/></svg>
